img/prizes-zoom-icon.svg

<svg fill="none" height="32" viewBox="0 0 33 32" width="33" xmlns="http://www.w3.org/2000/svg" xmlns:xlink="http://www.w3.org/1999/xlink"><clipPath id="a"><path d="m.5 0h32v32h-32z"/></clipPath><g clip-path="url(#a)"><path d="m20.6569 13.6455c0 .4711-.1871.9228-.5201 1.2558-.3331.3331-.7848.5202-1.2558.5202h-2.9599v2.9599c0 .471-.1871.9228-.5201 1.2558-.3331.3331-.7848.5202-1.2558.5202s-.9227-.1871-1.2557-.5202c-.3331-.333-.5202-.7848-.5202-1.2558v-2.9599h-2.95985c-.47101 0-.92272-.1871-1.25577-.5202-.33305-.333-.52015-.7847-.52015-1.2558 0-.471.1871-.9227.52015-1.2557.33305-.3331.78476-.5202 1.25577-.5202h2.95985v-2.95995c0-.47101.1871-.92273.5202-1.25579.333-.33306.7847-.52017 1.2557-.52017s.9227.18711 1.2558.52017c.333.33306.5201.78478.5201 1.25579v2.95995h2.9599c.471 0 .9227.1871 1.2558.5202.333.333.5201.7847.5201 1.2557zm11.32 17.8322c-.165.1655-.361.2969-.5769.3865-.2159.0897-.4473.1358-.681.1358-.2338 0-.4652-.0461-.6811-.1358-.2158-.0896-.4119-.221-.5769-.3865l-7.0282-7.0284c-2.746 2.1073-6.1908 3.0912-9.6356 2.752-3.44475-.3392-6.63151-1.9761-8.91383-4.5785-2.28232-2.6025-3.489291-5.9756-3.376068-9.4353.113224-3.45965 1.538158-6.7467 3.985758-9.19435 2.44759-2.44765 5.73454-3.872621 9.19414-3.9858476 3.4596-.1132264 6.8327 1.0937676 9.4351 3.3761476 2.6024 2.28237 4.2392 5.46921 4.5783 8.91405.3392 3.4448-.6446 6.8897-2.7519 9.6359l7.0356 7.0342c.3316.334.5171.7859.5157 1.2566-.0014.4706-.1895.9214-.5231 1.2535zm-17.8317-7.7684c1.9904 0 3.9361-.5902 5.591-1.696 1.655-1.1059 2.9448-2.6776 3.7065-4.5165s.961-3.8624.5727-5.8146c-.3883-1.95218-1.3468-3.74537-2.7542-5.15281-1.4074-1.40745-3.2005-2.36593-5.1527-2.75424-1.9521-.38831-3.9756-.18902-5.8144.57269-1.83889.7617-3.4106 2.0516-4.5164 3.70657-1.10579 1.65498-1.69601 3.60069-1.69601 5.59109.00314 2.6682 1.0644 5.2261 2.951 7.1127 1.8866 1.8867 4.44451 2.948 7.11251 2.9511z" fill="#f5f5f5"/></g></svg>

<svg width="33" height="32" viewBox="0 0 33 32" fill="none" xmlns="http://www.w3.org/2000/svg">
<g clip-path="url(#clip0_52264_905)">
<path d="M20.6569 13.6455C20.6569 14.1166 20.4698 14.5683 20.1368 14.9013C19.8037 15.2344 19.352 15.4215 18.881 15.4215H15.9211V18.3814C15.9211 18.8524 15.734 19.3042 15.401 19.6372C15.0679 19.9703 14.6162 20.1574 14.1452 20.1574C13.6742 20.1574 13.2225 19.9703 12.8895 19.6372C12.5564 19.3042 12.3693 18.8524 12.3693 18.3814V15.4215H9.40945C8.93844 15.4215 8.48673 15.2344 8.15368 14.9013C7.82063 14.5683 7.63353 14.1166 7.63353 13.6455C7.63353 13.1745 7.82063 12.7228 8.15368 12.3898C8.48673 12.0567 8.93844 11.8696 9.40945 11.8696H12.3693V8.90965C12.3693 8.43864 12.5564 7.98692 12.8895 7.65386C13.2225 7.3208 13.6742 7.13369 14.1452 7.13369C14.6162 7.13369 15.0679 7.3208 15.401 7.65386C15.734 7.98692 15.9211 8.43864 15.9211 8.90965V11.8696H18.881C19.352 11.8696 19.8037 12.0567 20.1368 12.3898C20.4698 12.7228 20.6569 13.1745 20.6569 13.6455ZM31.9769 31.4777C31.8119 31.6432 31.6159 31.7746 31.4 31.8642C31.1841 31.9539 30.9527 32 30.719 32C30.4852 32 30.2538 31.9539 30.0379 31.8642C29.8221 31.7746 29.626 31.6432 29.461 31.4777L22.4328 24.4493C19.6868 26.5566 16.242 27.5405 12.7972 27.2013C9.35245 26.8621 6.16569 25.2252 3.88337 22.6228C1.60105 20.0203 0.394079 16.6472 0.507302 13.1875C0.620526 9.72785 2.04546 6.4408 4.49306 3.99315C6.94065 1.5455 10.2276 0.120529 13.6872 0.0073024C17.1468 -0.105924 20.5199 1.10107 23.1223 3.38345C25.7247 5.66582 27.3615 8.85266 27.7006 12.2975C28.0398 15.7423 27.056 19.1872 24.9487 21.9334L31.9843 28.9676C32.3159 29.3016 32.5014 29.7535 32.5 30.2242C32.4986 30.6948 32.3105 31.1456 31.9769 31.4777ZM14.1452 23.7093C16.1356 23.7093 18.0813 23.1191 19.7362 22.0133C21.3912 20.9074 22.681 19.3357 23.4427 17.4968C24.2044 15.6579 24.4037 13.6344 24.0154 11.6822C23.6271 9.73002 22.6686 7.93683 21.2612 6.52939C19.8538 5.12194 18.0607 4.16346 16.1085 3.77515C14.1564 3.38684 12.1329 3.58613 10.2941 4.34784C8.45521 5.10954 6.8835 6.39944 5.7777 8.05441C4.67191 9.70939 4.08169 11.6551 4.08169 13.6455C4.08483 16.3137 5.14609 18.8716 7.03269 20.7582C8.91929 22.6449 11.4772 23.7062 14.1452 23.7093Z" fill="#F5F5F5"/>
</g>
<defs>
<clipPath id="clip0_52264_905">
<rect width="32" height="32" fill="white" transform="translate(0.5)"/>
</clipPath>
</defs>
</svg>
